!!!OTL: Braun Annel (3-24), S. 80
!!!id: P0996
**kern
*clefG2
*k[f#]
*e:
{8b
=1
8g
8f#
8e
=2
8d
8e
8d
=3
8g
8b
8a
=4
4b}
=5
{8b
=6
8b
8a
16g
16f#
=7
8e
8e
8e
=8
16f#
16a
8g
8f#
=9
4e}
==
*-
!!!minrhy: 16
!!!meters: 3/8 ]  ZZ[2
!!!cut: Braun Annel (3-24), S. 80
!!!reg: Lothringen
!!!trd: PINCK, Louis: Verklingende Weisen, Bd3, Metz 1933
!!!rhy1: X_  X_X_X_  X_X_X_  X_X_X_  X__
!!!rhy2: X_  X_X_XX  X_X_X_  XXX_X_  X__ // 
!!!key: P0996  16  E 3/8 ]  ZZ[2
!!!mod: SECHSTONSKALA MOLL ?]  AMBITUS[6
!!!kad: 51
!!!akz: 3b-7b3b5_5121_
!!!fot: 'a__b__
!!!for: 'a__b__
!!!fok: 'V__Sd_
!! PHRAS[AUFTAKTIG]
!!!fkt: Brautwerbung
!! LOTH VKL
!! PR[13] 2K[13] 2G[21] 3K[8] 3G[4] 4A[4] 4Ü[0] 5A[0] 6K[0] 6G[0]
!! 7K[0] 7G[0] 8A[0] MEHR[0] SI[50] ABS[24] SR[33] SP[17]
!! ST[8] 2k[4] 2g[8] 3k[8] 3g[8] 4d[0] 4ü[4] 5d[4] 6k[0] 6g[0]
!! 7k[0] 7g[0] 8d[0] mehr[0] si[38] dm[+12] sr[13] sp[25]
!! 1F[24] 2F[68] 3F[8] 4F[0] LF[0] 2P[0] 3P[0] 4P[0] TRI[0] DF[3] AB[25]
!! TF[0] U3K[0] U3[0] U4[0] U4Ü[0] U5[4] U6K[0] U6[0] U7K[0] U7[4]
!! N1[16] N2K[0] N2[12] N3K[0] N3[24] N4[24] N4Ü[0] N5[12] N6K[0] N6[4]
!!!n7k: 0] N7[0] O1[0] O2K[0] O2[0] O3K[0] O3[0] HÖ[0
